Yaru++/mimetypes/48/text-x-c.svg

<svg height="48" viewBox="0 0 12.699375 12.699375" width="48" xmlns="http://www.w3.org/2000/svg" xmlns:xlink="http://www.w3.org/1999/xlink"><linearGradient id="a" gradientUnits="userSpaceOnUse" x1="344" x2="344" y1="62" y2="106"><stop offset="0" stop-color="#fff"/><stop offset=".125" stop-color="#fff" stop-opacity=".098039"/><stop offset=".92500001" stop-color="#fff" stop-opacity=".098039"/><stop offset="1" stop-color="#fff" stop-opacity=".498039"/></linearGradient><clipPath id="b"><path d="m335.73108 62c-8.82418 0-9.77365.90635-9.7304 9.74838v12.25162 12.25162c-.0433 8.84203.90622 9.74838 9.7304 9.74838h16.53919c8.82418 0 9.7304-.90625 9.7304-9.74838v-12.25162-12.25162c0-8.84213-.90622-9.74838-9.7304-9.74838z"/></clipPath><linearGradient id="c" gradientTransform="matrix(0 -.02997086 .02997 0 -3.039509 13.625372)" gradientUnits="userSpaceOnUse" x1="459.03448" x2="35.310345" y1="419.23337" y2="207.36522"><stop offset="0" stop-color="#f2f2f2"/><stop offset="1" stop-color="#f9f9f9"/></linearGradient><path d="m4.1621982.39685609c-.5881821 0-1.0513178.0135407-1.4323995.0775109-.3810845.06396887-.692923.18395548-.9213477.41184073-.228422.22788558-.3489841.53958348-.4123566.92082868-.0633725.3812456-.0757438.8453924-.07286 1.4349839v3.2399529 3.241503c-.00286.5886858.00955 1.0525978.07286 1.4334338.063373.381246.1839345.692944.4123566.920829.2284247.227885.5402631.347873.9213476.411841.3810844.06397.8442174.07751 1.4323995.07751h4.3757443c.5881821 0 1.0510744-.01352 1.4313677-.07751.3802939-.064.6911799-.18439.9187599-.412357.227584-.227967.347434-.539443.411325-.920313.06389-.380868.07751-.844073.07751-1.4334338v-3.241503-3.241503c0-.5893606-.01363-1.0525644-.07751-1.4334338-.063891-.380869-.183741-.6923442-.411325-.92031197-.22758-.22796754-.538466-.34836079-.9187598-.41235744-.3802933-.06399691-.8431856-.0775109-1.4313677-.0775109z" opacity=".1"/><path d="m4.1623596.39685609c-2.3346161 0-2.5858177.23979331-2.574375 2.57913191v3.2414149 3.2414149c-.011456 2.3393392.2397589 2.5791322 2.574375 2.5791322h4.3757787c2.3346157 0 2.5743747-.239767 2.5743747-2.5791322v-3.2414149-3.2414149c0-2.33936506-.239759-2.57913191-2.5743747-2.57913191z" fill="none" opacity=".2" stroke="#000" stroke-width=".529141"/><path d="m4.1623596.39685609c-2.3346161 0-2.5858177.23979331-2.574375 2.57913191v3.2414149 3.2414149c-.011456 2.3393392.2397589 2.5791322 2.574375 2.5791322h4.3757787c2.3346157 0 2.5743747-.239767 2.5743747-2.5791322v-3.2414149-3.2414149c0-2.33936506-.239759-2.57913191-2.5743747-2.57913191z" fill="url(#c)"/><path d="m8.7062807 7.1330672q-.0272164.5909866-.3188258 1.045911-.291612.4510197-.8203981.6998576-.5248996.2488405-1.2014323.2488405-1.1158968 0-1.7574401-.7270736-.6415433-.7270929-.6415433-2.052936v-.2799558q0-.832066.2877228-1.4541661.2916094-.6259852.8359496-.9642482.5443376-.3421671 1.2597569-.3421671 1.0303558 0 1.6563424.5443457.6259972.5404608.7115328 1.493043h-1.3608492q-.0155567-.5171119-.2605039-.7426393-.2449524-.2255086-.7465221-.2255086-.5093455 0-.7465222.3810439-.2371767.3810463-.2488416 1.2169912v.4004748q0 .905939.2255118 1.2947491.2293983.3888102.7854061.3888102.4704642 0 .7193031-.2216295.2488416-.2216075.2643931-.7037428z" fill="#2f5fdd"/><path d="m1.5878047 6.2174029v3.241503c-.011456 2.3393381.2397774 2.5790441 2.5743935 2.5790441h4.3757443c2.3346165 0 2.5743935-.239679 2.5743935-2.5790441v-3.241503z" fill="#fff" opacity=".2"/><path d="m6.3500704.39685609v11.64109391h2.1878721c2.3346165 0 2.5743935-.239679 2.5743935-2.5790441v-3.241503-3.241503c0-2.33936506-.239777-2.57904381-2.5743935-2.57904381z" fill="#fff" opacity=".1"/><path clip-path="url(#b)" d="m335.73108 62c-8.82418 0-9.77365.90635-9.7304 9.74838v12.25162 12.25162c-.0433 8.84203.90622 9.74838 9.7304 9.74838h16.53919c8.82418 0 9.7304-.90625 9.7304-9.74838v-12.25162-12.25162c0-8.84213-.90622-9.74838-9.7304-9.74838z" fill="none" opacity=".4" stroke="url(#a)" stroke-width="2" transform="matrix(.26457031 0 0 .26457031 -84.662117 -16.006503)"/></svg>

<?xml version="1.0" encoding="UTF-8" standalone="no"?>
<svg
   xmlns:dc="http://purl.org/dc/elements/1.1/"
   xmlns:cc="http://creativecommons.org/ns#"
   xmlns:rdf="http://www.w3.org/1999/02/22-rdf-syntax-ns#"
   xmlns:svg="http://www.w3.org/2000/svg"
   xmlns="http://www.w3.org/2000/svg"
   xmlns:xlink="http://www.w3.org/1999/xlink"
   xmlns:sodipodi="http://sodipodi.sourceforge.net/DTD/sodipodi-0.dtd"
   xmlns:inkscape="http://www.inkscape.org/namespaces/inkscape"
   width="48"
   height="48"
   version="1.1"
   viewBox="0 0 12.699375 12.699375"
   id="svg49"
   sodipodi:docname="text-x-c.svg"
   inkscape:version="0.92.4 (5da689c313, 2019-01-14)">
  <metadata
     id="metadata53">
    <rdf:RDF>
      <cc:Work
         rdf:about="">
        <dc:format>image/svg+xml</dc:format>
        <dc:type
           rdf:resource="http://purl.org/dc/dcmitype/StillImage" />
        <dc:title></dc:title>
      </cc:Work>
    </rdf:RDF>
  </metadata>
  <sodipodi:namedview
     pagecolor="#ffffff"
     bordercolor="#666666"
     borderopacity="1"
     objecttolerance="10"
     gridtolerance="10"
     guidetolerance="10"
     inkscape:pageopacity="0"
     inkscape:pageshadow="2"
     inkscape:window-width="1420"
     inkscape:window-height="960"
     id="namedview51"
     showgrid="false"
     inkscape:zoom="16.3125"
     inkscape:cx="12.35249"
     inkscape:cy="24"
     inkscape:window-x="68"
     inkscape:window-y="83"
     inkscape:window-maximized="0"
     inkscape:current-layer="svg49" />
  <defs
     id="defs17">
    <linearGradient
       id="linearGradient4226"
       x1="529.65503"
       x2="-35.310001"
       y1="401.58401"
       y2="119.093"
       gradientTransform="matrix(0,-0.11988932,0.11988589,0,0.36278005,292.5483)"
       gradientUnits="userSpaceOnUse">
      <stop
         style="stop-color:#f2f2f2"
         offset="0"
         id="stop2" />
      <stop
         style="stop-color:#f9f9f9"
         offset="1"
         id="stop4" />
    </linearGradient>
    <linearGradient
       id="linearGradient4358"
       x1="88"
       x2="488"
       y1="88"
       y2="488"
       gradientUnits="userSpaceOnUse">
      <stop
         style="stop-color:#000000;stop-opacity:.58823532"
         offset="0"
         id="stop7" />
      <stop
         style="stop-color:#000000;stop-opacity:0"
         offset=".88"
         id="stop9" />
      <stop
         style="stop-color:#000000"
         offset="1"
         id="stop11" />
    </linearGradient>
    <filter
       id="filter4346"
       width="1.026"
       height="1.022"
       x="-0.0099999998"
       y="-0.0099999998"
       style="color-interpolation-filters:sRGB">
      <feGaussianBlur
         stdDeviation="2.12"
         id="feGaussianBlur14" />
    </filter>
    <clipPath
       clipPathUnits="userSpaceOnUse"
       id="clipPath994">
      <path
         style="color:#000000;display:inline;overflow:visible;visibility:visible;fill:#cdcdcd;fill-opacity:1;fill-rule:nonzero;stroke:none;stroke-width:2;stroke-miterlimit:4;stroke-dasharray:none;stroke-opacity:1;marker:none;enable-background:accumulate"
         d="m 335.73108,62 c -8.82418,0 -9.77365,0.90635 -9.7304,9.74838 V 84 96.25162 c -0.0433,8.84203 0.90622,9.74838 9.7304,9.74838 h 16.53919 c 8.82418,0 9.7304,-0.90625 9.7304,-9.74838 V 84 71.74838 C 362.00067,62.90625 361.09445,62 352.27027,62 Z"
         id="path996"
         inkscape:connector-curvature="0"
         sodipodi:nodetypes="scccssscsss" />
    </clipPath>
    <clipPath
       clipPathUnits="userSpaceOnUse"
       id="clipPath994-3">
      <path
         style="color:#000000;display:inline;overflow:visible;visibility:visible;fill:#cdcdcd;fill-opacity:1;fill-rule:nonzero;stroke:none;stroke-width:2;stroke-miterlimit:4;stroke-dasharray:none;stroke-opacity:1;marker:none;enable-background:accumulate"
         d="m 335.73108,62 c -8.82418,0 -9.77365,0.90635 -9.7304,9.74838 V 84 96.25162 c -0.0433,8.84203 0.90622,9.74838 9.7304,9.74838 h 16.53919 c 8.82418,0 9.7304,-0.90625 9.7304,-9.74838 V 84 71.74838 C 362.00067,62.90625 361.09445,62 352.27027,62 Z"
         id="path996-6"
         inkscape:connector-curvature="0"
         sodipodi:nodetypes="scccssscsss" />
    </clipPath>
    <clipPath
       clipPathUnits="userSpaceOnUse"
       id="clipPath994-7">
      <path
         style="color:#000000;display:inline;overflow:visible;visibility:visible;fill:#cdcdcd;fill-opacity:1;fill-rule:nonzero;stroke:none;stroke-width:2;stroke-miterlimit:4;stroke-dasharray:none;stroke-opacity:1;marker:none;enable-background:accumulate"
         d="m 335.73108,62 c -8.82418,0 -9.77365,0.90635 -9.7304,9.74838 V 84 96.25162 c -0.0433,8.84203 0.90622,9.74838 9.7304,9.74838 h 16.53919 c 8.82418,0 9.7304,-0.90625 9.7304,-9.74838 V 84 71.74838 C 362.00067,62.90625 361.09445,62 352.27027,62 Z"
         id="path996-5"
         inkscape:connector-curvature="0"
         sodipodi:nodetypes="scccssscsss" />
    </clipPath>
    <clipPath
       clipPathUnits="userSpaceOnUse"
       id="clipPath994-35">
      <path
         style="color:#000000;display:inline;overflow:visible;visibility:visible;fill:#cdcdcd;fill-opacity:1;fill-rule:nonzero;stroke:none;stroke-width:2;stroke-miterlimit:4;stroke-dasharray:none;stroke-opacity:1;marker:none;enable-background:accumulate"
         d="m 335.73108,62 c -8.82418,0 -9.77365,0.90635 -9.7304,9.74838 V 84 96.25162 c -0.0433,8.84203 0.90622,9.74838 9.7304,9.74838 h 16.53919 c 8.82418,0 9.7304,-0.90625 9.7304,-9.74838 V 84 71.74838 C 362.00067,62.90625 361.09445,62 352.27027,62 Z"
         id="path996-62"
         inkscape:connector-curvature="0"
         sodipodi:nodetypes="scccssscsss" />
    </clipPath>
    <clipPath
       clipPathUnits="userSpaceOnUse"
       id="clipPath994-9">
      <path
         style="color:#000000;display:inline;overflow:visible;visibility:visible;fill:#cdcdcd;fill-opacity:1;fill-rule:nonzero;stroke:none;stroke-width:2;stroke-miterlimit:4;stroke-dasharray:none;stroke-opacity:1;marker:none;enable-background:accumulate"
         d="m 335.73108,62 c -8.82418,0 -9.77365,0.90635 -9.7304,9.74838 V 84 96.25162 c -0.0433,8.84203 0.90622,9.74838 9.7304,9.74838 h 16.53919 c 8.82418,0 9.7304,-0.90625 9.7304,-9.74838 V 84 71.74838 C 362.00067,62.90625 361.09445,62 352.27027,62 Z"
         id="path996-1"
         inkscape:connector-curvature="0"
         sodipodi:nodetypes="scccssscsss" />
    </clipPath>
    <clipPath
       clipPathUnits="userSpaceOnUse"
       id="clipPath994-2">
      <path
         style="color:#000000;display:inline;overflow:visible;visibility:visible;fill:#cdcdcd;fill-opacity:1;fill-rule:nonzero;stroke:none;stroke-width:2;stroke-miterlimit:4;stroke-dasharray:none;stroke-opacity:1;marker:none;enable-background:accumulate"
         d="m 335.73108,62 c -8.82418,0 -9.77365,0.90635 -9.7304,9.74838 V 84 96.25162 c -0.0433,8.84203 0.90622,9.74838 9.7304,9.74838 h 16.53919 c 8.82418,0 9.7304,-0.90625 9.7304,-9.74838 V 84 71.74838 C 362.00067,62.90625 361.09445,62 352.27027,62 Z"
         id="path996-7"
         inkscape:connector-curvature="0"
         sodipodi:nodetypes="scccssscsss" />
    </clipPath>
    <clipPath
       clipPathUnits="userSpaceOnUse"
       id="clipPath994-0">
      <path
         style="color:#000000;display:inline;overflow:visible;visibility:visible;fill:#cdcdcd;fill-opacity:1;fill-rule:nonzero;stroke:none;stroke-width:2;stroke-miterlimit:4;stroke-dasharray:none;stroke-opacity:1;marker:none;enable-background:accumulate"
         d="m 335.73108,62 c -8.82418,0 -9.77365,0.90635 -9.7304,9.74838 V 84 96.25162 c -0.0433,8.84203 0.90622,9.74838 9.7304,9.74838 h 16.53919 c 8.82418,0 9.7304,-0.90625 9.7304,-9.74838 V 84 71.74838 C 362.00067,62.90625 361.09445,62 352.27027,62 Z"
         id="path996-9"
         inkscape:connector-curvature="0"
         sodipodi:nodetypes="scccssscsss" />
    </clipPath>
    <clipPath
       clipPathUnits="userSpaceOnUse"
       id="clipPath994-36">
      <path
         style="color:#000000;display:inline;overflow:visible;visibility:visible;fill:#cdcdcd;fill-opacity:1;fill-rule:nonzero;stroke:none;stroke-width:2;stroke-miterlimit:4;stroke-dasharray:none;stroke-opacity:1;marker:none;enable-background:accumulate"
         d="m 335.73108,62 c -8.82418,0 -9.77365,0.90635 -9.7304,9.74838 V 84 96.25162 c -0.0433,8.84203 0.90622,9.74838 9.7304,9.74838 h 16.53919 c 8.82418,0 9.7304,-0.90625 9.7304,-9.74838 V 84 71.74838 C 362.00067,62.90625 361.09445,62 352.27027,62 Z"
         id="path996-0"
         inkscape:connector-curvature="0"
         sodipodi:nodetypes="scccssscsss" />
    </clipPath>
    <clipPath
       clipPathUnits="userSpaceOnUse"
       id="clipPath994-6">
      <path
         style="color:#000000;display:inline;overflow:visible;visibility:visible;fill:#cdcdcd;fill-opacity:1;fill-rule:nonzero;stroke:none;stroke-width:2;stroke-miterlimit:4;stroke-dasharray:none;stroke-opacity:1;marker:none;enable-background:accumulate"
         d="m 335.73108,62 c -8.82418,0 -9.77365,0.90635 -9.7304,9.74838 V 84 96.25162 c -0.0433,8.84203 0.90622,9.74838 9.7304,9.74838 h 16.53919 c 8.82418,0 9.7304,-0.90625 9.7304,-9.74838 V 84 71.74838 C 362.00067,62.90625 361.09445,62 352.27027,62 Z"
         id="path996-2"
         inkscape:connector-curvature="0"
         sodipodi:nodetypes="scccssscsss" />
    </clipPath>
    <linearGradient
       inkscape:collect="always"
       xlink:href="#linearGradient927"
       id="linearGradient1004"
       x1="344"
       y1="62"
       x2="344"
       y2="106"
       gradientUnits="userSpaceOnUse" />
    <linearGradient
       inkscape:collect="always"
       id="linearGradient927">
      <stop
         style="stop-color:#ffffff;stop-opacity:1;"
         offset="0"
         id="stop923" />
      <stop
         id="stop933"
         offset="0.125"
         style="stop-color:#ffffff;stop-opacity:0.09803922" />
      <stop
         id="stop931"
         offset="0.92500001"
         style="stop-color:#ffffff;stop-opacity:0.09803922" />
      <stop
         style="stop-color:#ffffff;stop-opacity:0.49803922"
         offset="1"
         id="stop925" />
    </linearGradient>
    <clipPath
       clipPathUnits="userSpaceOnUse"
       id="clipPath994-61">
      <path
         style="color:#000000;display:inline;overflow:visible;visibility:visible;fill:#cdcdcd;fill-opacity:1;fill-rule:nonzero;stroke:none;stroke-width:2;stroke-miterlimit:4;stroke-dasharray:none;stroke-opacity:1;marker:none;enable-background:accumulate"
         d="m 335.73108,62 c -8.82418,0 -9.77365,0.90635 -9.7304,9.74838 V 84 96.25162 c -0.0433,8.84203 0.90622,9.74838 9.7304,9.74838 h 16.53919 c 8.82418,0 9.7304,-0.90625 9.7304,-9.74838 V 84 71.74838 C 362.00067,62.90625 361.09445,62 352.27027,62 Z"
         id="path996-8"
         inkscape:connector-curvature="0"
         sodipodi:nodetypes="scccssscsss" />
    </clipPath>
    <linearGradient
       inkscape:collect="always"
       xlink:href="#linearGradient4338"
       id="linearGradient1024"
       gradientUnits="userSpaceOnUse"
       gradientTransform="matrix(0,-0.02997086,0.02997,0,-3.0395088,13.625372)"
       x1="459.03448"
       y1="419.23337"
       x2="35.310345"
       y2="207.36522" />
    <linearGradient
       inkscape:collect="always"
       id="linearGradient4338">
      <stop
         style="stop-color:#f2f2f2;stop-opacity:1"
         offset="0"
         id="stop4340" />
      <stop
         style="stop-color:#f9f9f9;stop-opacity:1"
         offset="1"
         id="stop4342" />
    </linearGradient>
  </defs>
  <path
     style="color:#000000;font-style:normal;font-variant:normal;font-weight:normal;font-stretch:normal;font-size:medium;line-height:normal;font-family:sans-serif;font-variant-ligatures:normal;font-variant-position:normal;font-variant-caps:normal;font-variant-numeric:normal;font-variant-alternates:normal;font-feature-settings:normal;text-indent:0;text-align:start;text-decoration:none;text-decoration-line:none;text-decoration-style:solid;text-decoration-color:#000000;letter-spacing:normal;word-spacing:normal;text-transform:none;writing-mode:lr-tb;direction:ltr;text-orientation:mixed;dominant-baseline:auto;baseline-shift:baseline;text-anchor:start;white-space:normal;shape-padding:0;clip-rule:nonzero;display:inline;overflow:visible;visibility:visible;opacity:0.1;isolation:auto;mix-blend-mode:normal;color-interpolation:sRGB;color-interpolation-filters:linearRGB;solid-color:#000000;solid-opacity:1;vector-effect:none;fill:#000000;fill-opacity:1;fill-rule:nonzero;stroke:none;stroke-width:0.52914065;stroke-linecap:butt;stroke-linejoin:miter;stroke-miterlimit:4;stroke-dasharray:none;stroke-dashoffset:0;stroke-opacity:1;marker:none;color-rendering:auto;image-rendering:auto;shape-rendering:auto;text-rendering:auto;enable-background:accumulate"
     d="m 4.1621982,0.39685609 c -0.5881821,0 -1.0513178,0.0135407 -1.4323995,0.0775109 C 2.3487142,0.53833586 2.0368757,0.65832247 1.808451,0.88620772 1.580029,1.1140933 1.4594669,1.4257912 1.3960944,1.8070364 1.3327219,2.188282 1.3203506,2.6524288 1.3232344,3.2420203 v 3.2399529 3.241503 c -0.00286,0.5886858 0.00955,1.0525978 0.07286,1.4334338 0.063373,0.381246 0.1839345,0.692944 0.4123566,0.920829 0.2284247,0.227885 0.5402631,0.347873 0.9213476,0.411841 0.3810844,0.06397 0.8442174,0.07751 1.4323995,0.07751 h 4.3757443 c 0.5881821,0 1.0510744,-0.01352 1.4313677,-0.07751 0.3802939,-0.064 0.6911799,-0.18439 0.9187599,-0.412357 0.227584,-0.227967 0.347434,-0.539443 0.411325,-0.920313 0.06389,-0.380868 0.07751,-0.844073 0.07751,-1.4334338 v -3.241503 -3.241503 c 0,-0.5893606 -0.01363,-1.0525644 -0.07751,-1.4334338 C 11.235504,1.4261674 11.115654,1.1146922 10.88807,0.88672443 10.66049,0.65875689 10.349604,0.53836364 9.9693102,0.47436699 9.5890169,0.41037008 9.1261246,0.39685609 8.5379425,0.39685609 Z"
     id="path1020"
     inkscape:connector-curvature="0"
     sodipodi:nodetypes="sccsccccccsscccscsccsss" />
  <path
     style="color:#000000;display:inline;overflow:visible;visibility:visible;opacity:0.2;fill:none;fill-opacity:1;fill-rule:nonzero;stroke:#000000;stroke-width:0.52914065;stroke-miterlimit:4;stroke-dasharray:none;stroke-opacity:1;marker:none;enable-background:accumulate"
     d="m 4.1623596,0.39685609 c -2.3346161,0 -2.5858177,0.23979331 -2.574375,2.57913191 V 6.2174029 9.4588178 C 1.5765286,11.798157 1.8277435,12.03795 4.1623596,12.03795 h 4.3757787 c 2.3346157,0 2.5743747,-0.239767 2.5743747,-2.5791322 V 6.2174029 2.975988 c 0,-2.33936506 -0.239759,-2.57913191 -2.5743747,-2.57913191 z"
     id="path958"
     inkscape:connector-curvature="0"
     sodipodi:nodetypes="scccssscsss" />
  <path
     style="color:#000000;display:inline;overflow:visible;visibility:visible;fill:url(#linearGradient1024);fill-opacity:1;fill-rule:nonzero;stroke:none;stroke-width:0.26457033;marker:none;enable-background:accumulate"
     d="m 4.1623596,0.39685609 c -2.3346161,0 -2.5858177,0.23979331 -2.574375,2.57913191 V 6.2174029 9.4588178 C 1.5765286,11.798157 1.8277435,12.03795 4.1623596,12.03795 h 4.3757787 c 2.3346157,0 2.5743747,-0.239767 2.5743747,-2.5791322 V 6.2174029 2.975988 c 0,-2.33936506 -0.239759,-2.57913191 -2.5743747,-2.57913191 z"
     id="path964"
     inkscape:connector-curvature="0"
     sodipodi:nodetypes="scccssscsss" />
  <path
     d="M 8.7062807,7.1330672 Q 8.6790643,7.7240538 8.3874549,8.1789782 8.0958429,8.6299979 7.5670568,8.8788358 7.0421572,9.1276763 6.3656245,9.1276763 q -1.1158968,0 -1.7574401,-0.7270736 Q 3.9666411,7.6735098 3.9666411,6.3476667 V 6.0677109 q 0,-0.832066 0.2877228,-1.4541661 0.2916094,-0.6259852 0.8359496,-0.9642482 0.5443376,-0.3421671 1.2597569,-0.3421671 1.0303558,0 1.6563424,0.5443457 Q 8.63241,4.391936 8.7179456,5.3445182 H 7.3570964 Q 7.3415397,4.8274063 7.0965925,4.6018789 6.8516401,4.3763703 6.3500704,4.3763703 q -0.5093455,0 -0.7465222,0.3810439 -0.2371767,0.3810463 -0.2488416,1.2169912 v 0.4004748 q 0,0.905939 0.2255118,1.2947491 0.2293983,0.3888102 0.7854061,0.3888102 0.4704642,0 0.7193031,-0.2216295 0.2488416,-0.2216075 0.2643931,-0.7037428 z"
     style="font-style:normal;font-variant:normal;font-weight:900;font-stretch:normal;font-size:medium;line-height:125%;font-family:Roboto;-inkscape-font-specification:'Roboto Heavy';letter-spacing:0px;word-spacing:0px;display:inline;fill:#2f5fdd;fill-opacity:1;stroke:none;stroke-width:0.2645703px;stroke-linecap:butt;stroke-linejoin:miter;stroke-opacity:1;enable-background:new"
     id="path911"
     inkscape:connector-curvature="0" />
  <path
     style="color:#000000;display:inline;overflow:visible;visibility:visible;opacity:0.2;fill:#ffffff;fill-opacity:1;fill-rule:nonzero;stroke:none;stroke-width:0.26457033;marker:none;enable-background:accumulate"
     d="m 1.5878047,6.2174029 v 3.241503 C 1.5763487,11.798244 1.8275821,12.03795 4.1621982,12.03795 h 4.3757443 c 2.3346165,0 2.5743935,-0.239679 2.5743935,-2.5790441 v -3.241503 z"
     id="path1006"
     inkscape:connector-curvature="0" />
  <path
     style="color:#000000;display:inline;overflow:visible;visibility:visible;opacity:0.1;fill:#ffffff;fill-opacity:1;fill-rule:nonzero;stroke:none;stroke-width:0.26457033;marker:none;enable-background:accumulate"
     d="M 6.3500704,0.39685609 V 12.03795 h 2.1878721 c 2.3346165,0 2.5743935,-0.239679 2.5743935,-2.5790441 v -3.241503 -3.241503 c 0,-2.33936506 -0.239777,-2.57904381 -2.5743935,-2.57904381 z"
     id="path1013"
     inkscape:connector-curvature="0" />
  <path
     transform="matrix(0.26457031,0,0,0.26457031,-84.662117,-16.006503)"
     sodipodi:nodetypes="scccssscsss"
     inkscape:connector-curvature="0"
     id="path990"
     d="m 335.73108,62 c -8.82418,0 -9.77365,0.90635 -9.7304,9.74838 V 84 96.25162 c -0.0433,8.84203 0.90622,9.74838 9.7304,9.74838 h 16.53919 c 8.82418,0 9.7304,-0.90625 9.7304,-9.74838 V 84 71.74838 C 362.00067,62.90625 361.09445,62 352.27027,62 Z"
     style="color:#000000;display:inline;overflow:visible;visibility:visible;opacity:0.4;fill:none;fill-opacity:1;fill-rule:nonzero;stroke:url(#linearGradient1004);stroke-width:2;stroke-miterlimit:4;stroke-dasharray:none;stroke-opacity:1;marker:none;enable-background:accumulate"
     clip-path="url(#clipPath994-61)" />
</svg>
